src/images/icons/oracle.svg

<?xml version="1.0" encoding="UTF-8"?>
<svg width="89px" height="82px" viewBox="0 0 89 82" version="1.1" xmlns="http://www.w3.org/2000/svg" xmlns:xlink="http://www.w3.org/1999/xlink">
    <!-- Generator: Sketch 51.2 (57519) - http://www.bohemiancoding.com/sketch -->
    <title>Group</title>
    <desc>Created with Sketch.</desc>
    <defs></defs>
    <g id="Page-3" stroke="none" stroke-width="1" fill="none" fill-rule="evenodd">
        <g id="Artboard-27" transform="translate(-12.000000, -14.000000)">
            <g id="Group" transform="translate(15.000000, 17.000000)">
                <path d="M73.8398,39.48 C73.7258,38.415 74.4978,37.459 75.5628,37.345 C76.6288,37.231 77.5838,38.002 77.6978,39.067 C77.8108,40.123 77.0538,41.074 75.9998,41.2 L75.7598,41.2 C74.7768,41.196 73.9518,40.457 73.8398,39.48" id="Fill-1156" fill="#7490B1"></path>
                <path d="M29.9302,74.5898 C30.3582,73.6078 29.9092,72.4648 28.9272,72.0358 C27.9452,71.6078 26.8022,72.0568 26.3732,73.0388 C25.9462,74.0188 26.3912,75.1588 27.3702,75.5898 C27.6052,75.6978 27.8612,75.7558 28.1202,75.7598 C28.9042,75.7718 29.6182,75.3098 29.9302,74.5898" id="Fill-1158" fill="#7490B1"></path>
                <path d="M72.3901,27.53 C73.3121,26.996 73.6261,25.814 73.0921,24.892 C72.5571,23.97 71.3761,23.656 70.4541,24.19 C69.5321,24.725 69.2181,25.906 69.7521,26.828 C70.0921,27.414 70.7131,27.779 71.3901,27.79 C71.7411,27.797 72.0871,27.707 72.3901,27.53 Z" id="Fill-1160" fill="#7490B1"></path>
                <path d="M60.8501,16.9102 C61.7141,17.5422 62.9271,17.3542 63.5601,16.4902 C64.1931,15.6252 64.0051,14.4112 63.1411,13.7792 C62.2761,13.1452 61.0621,13.3332 60.4301,14.1982 C59.7961,15.0622 59.9841,16.2762 60.8491,16.9092 C60.8491,16.9092 60.8501,16.9102 60.8501,16.9102" id="Fill-1162" fill="#7490B1"></path>
                <path d="M41.9399,78.6802 C43.0109,78.6802 43.8799,77.8112 43.8799,76.7402 C43.8799,75.6682 43.0109,74.8002 41.9399,74.8002 C40.8689,74.8002 39.9999,75.6682 39.9999,76.7402 C39.9939,77.8052 40.8529,78.6752 41.9189,78.6812 C41.9459,78.6812 41.9729,78.6812 41.9999,78.6802 L41.9399,78.6802 Z" id="Fill-1164" fill="#7490B1"></path>
                <path d="M11.6401,27.46 C11.9271,27.623 12.2501,27.712 12.5801,27.72 C13.6511,27.737 14.5331,26.882 14.5501,25.811 C14.5671,24.739 13.7121,23.857 12.6411,23.84 C11.5701,23.824 10.6871,24.678 10.6711,25.75 C10.6601,26.453 11.0311,27.108 11.6401,27.46" id="Fill-1166" fill="#7490B1"></path>
                <path d="M56.5698,75.5898 C57.5478,75.1558 57.9888,74.0128 57.5548,73.0348 C57.1218,72.0578 55.9778,71.6158 54.9998,72.0498 C54.0048,72.4448 53.5178,73.5728 53.9128,74.5688 C54.3078,75.5648 55.4358,76.0518 56.4318,75.6558 C56.4818,75.6358 56.5318,75.6138 56.5798,75.5898 L56.5698,75.5898 Z" id="Fill-1168" fill="#7490B1"></path>
                <path d="M22.0601,17.2202 C23.1311,17.2362 24.0131,16.3812 24.0301,15.3102 C24.0461,14.2392 23.1911,13.3572 22.1201,13.3402 C21.0481,13.3242 20.1661,14.1792 20.1501,15.2502 C20.1431,15.6702 20.2731,16.0802 20.5201,16.4202 C20.8791,16.9142 21.4491,17.2102 22.0601,17.2202" id="Fill-1170" fill="#7490B1"></path>
                <path d="M8,41.1602 L8.18,41.1602 C9.197,41.1972 10.07,40.4422 10.18,39.4302 C10.299,38.3612 9.529,37.3992 8.46,37.2802 C7.391,37.1612 6.429,37.9312 6.31,39.0002 C6.181,40.0632 6.937,41.0302 8,41.1602" id="Fill-1172" fill="#7490B1"></path>
                <path d="M25.29,43.9199 C25.29,34.7079 32.758,27.2399 41.97,27.2399 C51.182,27.2399 58.65,34.7079 58.65,43.9199 C58.65,53.1209 51.2,60.5839 42,60.5999 C32.788,60.5999 25.32,53.1319 25.32,43.9199 L25.29,43.9199 Z" id="Stroke-1174" stroke="#8C8C8C" stroke-width="3"></path>
                <path d="M36.73,51.77 C37.628,52.178 38.582,52.451 39.56,52.58 C40.32,52.7 40.35,52.73 40.36,53.53 L40.36,54.61 C40.309,54.96 40.551,55.285 40.901,55.336 C40.95,55.343 41.001,55.344 41.05,55.34 L42.64,55.34 C42.976,55.371 43.272,55.124 43.303,54.788 C43.307,54.742 43.306,54.696 43.3,54.65 L43.3,53.17 C43.236,52.744 43.53,52.347 43.956,52.283 C43.964,52.282 43.972,52.281 43.98,52.28 C45.07,51.993 46.043,51.37 46.76,50.5 C48.504,48.359 48.183,45.209 46.042,43.465 C45.763,43.238 45.461,43.042 45.14,42.88 C44.231,42.408 43.296,41.987 42.34,41.62 C41.792,41.407 41.277,41.117 40.81,40.76 C40.2,40.351 40.037,39.525 40.445,38.915 C40.611,38.667 40.856,38.482 41.14,38.39 C41.439,38.27 41.758,38.206 42.08,38.2 C43.297,38.125 44.513,38.367 45.61,38.9 C46.17,39.17 46.35,39.09 46.54,38.51 C46.73,37.93 46.91,37.27 47.09,36.66 C47.221,36.326 47.056,35.949 46.722,35.818 C46.705,35.811 46.688,35.805 46.67,35.8 C45.959,35.483 45.209,35.262 44.44,35.14 C43.44,34.98 43.44,34.98 43.44,33.96 C43.44,32.53 43.44,32.53 42,32.53 L41.4,32.53 C40.73,32.53 40.61,32.67 40.6,33.34 L40.6,34.25 C40.6,35.15 40.6,35.13 39.73,35.45 C37.721,36.01 36.306,37.806 36.23,39.89 C36.146,41.712 37.157,43.408 38.8,44.2 C39.835,44.747 40.904,45.228 42,45.64 C42.419,45.816 42.813,46.048 43.17,46.33 C43.891,46.841 44.062,47.839 43.551,48.561 C43.362,48.827 43.097,49.029 42.79,49.14 C42.141,49.416 41.428,49.509 40.73,49.41 C39.635,49.288 38.572,48.969 37.59,48.47 C37.01,48.17 36.84,48.25 36.64,48.88 C36.44,49.51 36.32,49.97 36.17,50.52 C36,51.25 36,51.43 36.75,51.77 L36.73,51.77 Z" id="Fill-1176" fill="#7490B1"></path>
                <polygon id="Stroke-1178" stroke="#8C8C8C" stroke-width="3" points="42 20 32 10 42 0 52 10"></polygon>
                <polygon id="Stroke-1180" stroke="#8C8C8C" stroke-width="3" points="10 73 0 63 10 53 20 63"></polygon>
                <polygon id="Stroke-1182" stroke="#8C8C8C" stroke-width="3" points="73 73 63 63 73 53 83 63"></polygon>
            </g>
        </g>
    </g>
</svg>

<svg height="82" viewBox="0 0 89 82" width="89" xmlns="http://www.w3.org/2000/svg"><g fill="none" fill-rule="evenodd" transform="translate(3 3)"><g fill="#7490b1"><path d="m73.8398 39.48c-.114-1.065.658-2.021 1.723-2.135 1.066-.114 2.021.657 2.135 1.722.113 1.056-.644 2.007-1.698 2.133h-.24c-.983-.004-1.808-.743-1.92-1.72"/><path d="m29.9302 74.5898c.428-.982-.021-2.125-1.003-2.554-.982-.428-2.125.021-2.554 1.003-.427.98.018 2.12.997 2.551.235.108.491.166.75.17.784.012 1.498-.45 1.81-1.17"/><path d="m72.3901 27.53c.922-.534 1.236-1.716.702-2.638-.535-.922-1.716-1.236-2.638-.702-.922.535-1.236 1.716-.702 2.638.34.586.961.951 1.638.962.351.007.697-.083 1-.26z"/><path d="m60.8501 16.9102c.864.632 2.077.444 2.71-.42.633-.865.445-2.079-.419-2.711-.865-.634-2.079-.446-2.711.419-.634.864-.446 2.078.419 2.711 0 0 .001.001.001.001"/><path d="m41.9399 78.6802c1.071 0 1.94-.869 1.94-1.94 0-1.072-.869-1.94-1.94-1.94s-1.94.868-1.94 1.94c-.006 1.065.853 1.935 1.919 1.941.027 0 .054 0 .081-.001z"/><path d="m11.6401 27.46c.287.163.61.252.94.26 1.071.017 1.953-.838 1.97-1.909.017-1.072-.838-1.954-1.909-1.971-1.071-.016-1.954.838-1.97 1.91-.011.703.36 1.358.969 1.71"/><path d="m56.5698 75.5898c.978-.434 1.419-1.577.985-2.555-.433-.977-1.577-1.419-2.555-.985-.995.395-1.482 1.523-1.087 2.519s1.523 1.483 2.519 1.087c.05-.02.1-.042.148-.066z"/><path d="m22.0601 17.2202c1.071.016 1.953-.839 1.97-1.91.016-1.071-.839-1.953-1.91-1.97-1.072-.016-1.954.839-1.97 1.91-.007.42.123.83.37 1.17.359.494.929.79 1.54.8"/><path d="m8 41.1602h.18c1.017.037 1.89-.718 2-1.73.119-1.069-.651-2.031-1.72-2.15s-2.031.651-2.15 1.72c-.129 1.063.627 2.03 1.69 2.16"/></g><path d="m25.29 43.9199c0-9.212 7.468-16.68 16.68-16.68s16.68 7.468 16.68 16.68c0 9.201-7.45 16.664-16.65 16.68-9.212 0-16.68-7.468-16.68-16.68z" stroke="#8c8c8c" stroke-width="3"/><path d="m36.73 51.77c.898.408 1.852.681 2.83.81.76.12.79.15.8.95v1.08c-.051.35.191.675.541.726.049.007.1.008.149.004h1.59c.336.031.632-.216.663-.552.004-.046.003-.092-.003-.138v-1.48c-.064-.426.23-.823.656-.887.008-.001.016-.002.024-.003 1.09-.287 2.063-.91 2.78-1.78 1.744-2.141 1.423-5.291-.718-7.035-.279-.227-.581-.423-.902-.585-.909-.472-1.844-.893-2.8-1.26-.548-.213-1.063-.503-1.53-.86-.61-.409-.773-1.235-.365-1.845.166-.248.411-.433.695-.525.299-.12.618-.184.94-.19 1.217-.075 2.433.167 3.53.7.56.27.74.19.93-.39s.37-1.24.55-1.85c.131-.334-.034-.711-.368-.842-.017-.007-.034-.013-.052-.018-.711-.317-1.461-.538-2.23-.66-1-.16-1-.16-1-1.18 0-1.43 0-1.43-1.44-1.43h-.6c-.67 0-.79.14-.8.81v.91c0 .9 0 .88-.87 1.2-2.009.56-3.424 2.356-3.5 4.44-.084 1.822.927 3.518 2.57 4.31 1.035.547 2.104 1.028 3.2 1.44.419.176.813.408 1.17.69.721.511.892 1.509.381 2.231-.189.266-.454.468-.761.579-.649.276-1.362.369-2.06.27-1.095-.122-2.158-.441-3.14-.94-.58-.3-.75-.22-.95.41s-.32 1.09-.47 1.64c-.17.73-.17.91.58 1.25z" fill="#7490b1"/><g stroke="#8c8c8c" stroke-width="3"><path d="m42 20-10-10 10-10 10 10z"/><path d="m10 73-10-10 10-10 10 10z"/><path d="m73 73-10-10 10-10 10 10z"/></g></g></svg>
